X:1
T:Title
%%score 1 ( 2 3 )
L:1/8
Q:1/4=120
M:2/2
K:Bb
V:1 treble nm="Strings 1, Treble"
V:2 bass nm="Strings 1, Bass"
V:3 bass 
V:1
 [DB]3 [DB] [DB]2 [FB]2 | [FA]2 [EG]2 [DF]2 [DB]2 | [Fd]2 [Ec]2 [DB]2 [CA]2 | [DB]8 | %4
 [Fc]3 [FB] [FA]2 [FB]2 | [Fc]2 [Fc]2 [Fd]2 [FB]2 | [Fc]3 [GB] [FA]2 [=EG]2 | F8 | %8
 [DF]3 [DF] [EG]2 [DF]2 | [DB]2 [DF]2 [Fd]2 [FB]2 | [Fd]2 [Fd]2 [Af]2 [Fe]2 | [Fd]8 | %12
 [Fc]3 [Fd] [Fe]2 [Fc]2 | [FB]3 [Fc] [Fd]2 [FB]2 | [FA]2 [FB]2 [Fc]3 [EA] | [DB]8 |] %16
V:2
 [B,,F,]3 [B,,F,] [B,,F,]2 [D,B,]2 | [E,B,]2 [G,B,]2 B,2 [B,,B,]2 | [B,,B,]2 [E,G,]2 F,2 [F,,F,]2 | %3
w: 1.~Blow~ the~ gos pel~|trum pet,~ broth er,~|o ver~ land~ and~|
 [B,,F,]8 | [F,A,]3 [F,D] [F,C]2 [F,G,]2 | [F,A,]2 [F,A,]2 B,2 [B,,D]2 | %6
w: sea,~|Sound~ the~ news~ to~|all~ cre a tion,~|
 [A,,E]3 [B,,D] [C,C]2 [C,B,]2 | [F,A,]8 | [B,,B,]3 [B,,B,] [B,,B,]2 [B,,B,]2 | %9
w: Christ~ will~ set~ you~|free;~|He~ will~ break~ the~|
 [B,,F,]2 [B,,B,]2 [B,,B,]2 [B,,D]2 | z4 z2 C2 | B,8 | [F,A,]3 [F,B,] [F,C]2 [F,A,]2 | %13
w: chains~ of~ bond age,~|ings~|sound,~|He~ is~ a ble,~|
 [D,B,]3 [F,A,] [B,,B,]2 [B,,D]2 | [F,C]2 [F,D]2 [F,E]3 [F,C] | [B,,B,]8 |] %16
w: do~ not~ doubt~ Him,~|let~ His~ grace~ a|bound.~|
V:3
 x8 | x8 | x8 | x8 | x8 | x8 | x8 | x8 | x8 | x8 | B,2 B,2 [F,C]2 G,A, | x8 | x8 | x8 | x8 | x8 |] %16
w: ||||||||||* the~ * * *||||||

